X:1
T:Jesu Corona, LM
T:Jesu Corona, LM
T:Rouen Church Tune
T:Public Domain Courtesy of the Cyber Hymnal™
C:Rouen Church Tune
Z:Public Domain
Z:Courtesy of the Cyber Hymnal™
%%score ( 1 2 ) ( 3 4 )
L:1/8
Q:1/4=117
M:3/4
K:F
V:1 treble 
V:2 treble 
V:3 bass 
V:4 bass 
V:1
 D2 | [A,DF]4 [CEG]2 | ([FA]2 [EG]2) [CFA]2 | [F,CF]4 [G,CE]2 | [F,A,D]4 [FAd]2 | [Ec]4 [Gd]2 | %6
 (e2 d2) [Ec]2 | [DG=B]4 [CEA]2 | [CEA]4 [DA]2 | [DB]4 [DG]2 | (E2 [DF]2) [EG]2 | %11
 A2 G2 [A,C][F,A,F] | [A,CF]4 [Fc]2 | ([CFA]2 [B,DG]2) [A,CE]2 | ([A,DF]2 [EG]2) [FA]2 | %15
 [CF]2 [G,CE]3 [F,A,D] | [F,A,D]4 |] %17
V:2
 D2 | x6 | C4 x2 | x6 | x6 | x6 | G4 x2 | x6 | x6 | x6 | E2 x4 | [CE]4 x2 | x6 | x6 | C4 x2 | x6 | %16
 x4 |] %17
V:3
 [D,F,]2 | D,4 C,2 | (F,2 C,2) F,,2 | A,,4 C,2 | D,4 [D,A,]2 | A,4 [G,=B,]2 | %6
 [C,C]2 [G,=B,]2 [A,C]2 | [G,,G,]4 [A,,E,]2 | [A,,E,]4 [D,F,]2 | [G,,G,]4 [B,,G,]2 | %10
 ([C,C]2 [D,A,]2) [C,C]2 | A,,2 C,3 F, | F,4 [F,A,]2 | F,,2 G,,2 A,,2 | D,2 C,2 F,2 | %15
 [A,,F,]2 C,3 D, | D,4 |] %17
V:4
 x2 | x6 | x6 | x6 | x6 | A,4 x2 | x6 | x6 | x6 | x6 | x6 | x6 | x6 | x6 | x6 | x6 | D,4 |] %17

